!! 00000] TT[WS
!!!OTL: Zai liushu
!!!ARE: Asia, China,ÿShanxi Ningwu
!! Ethnic Group: Han
!! WI, 133
!!!SCT: J0160
!!!YEM: Copyright 1995, estate of Helmut Schaffrath.
**kern
*ICvox
*Ivox
*M2/4
*k[b-]
*F:
{4cc
4dd
=1
8ff
8gg
8ff
8dd
=2
8cc
8dd
8cc
16g
16a
=3
2cc}
=4
{8g
16g
16a
8f
16e
16d
=5
4c
8d
8f
=6
2c}
=7
{8ff
4ff
8ff
=8
8.dd
16ff
8.dd
16ff
=9
8dd
8dd
8g
8a
=10
2cc}
=11
{8cc
16cc
16cc
4b-
=12
8cc
16cc
16cc
4b-
=13
8a
8ff
4cc
=14
8a
8d
4f}
=15
{8g
16g
16a
8f
8d
=16
4c
16d
16c
16d
16f
=17
2c}
==
!!!AGN: Xiaodiao. Qingge
!! Die Melodie ist wahrscheinlich aus Mengulia.
!!!ONB: ESAC (Essen Associative Code) Database: CHINA
!!!AMT: simple duple
!!!AIN: vox
!!!EED: Helmut Schaffrath
!!!EEV: 1.0
*-
